assets/Pisces/Flat/pisces_flat.svg

<svg width="32" height="32" viewBox="0 0 32 32" fill="none" xmlns="http://www.w3.org/2000/svg">
<path d="M2 6C2 3.79086 3.79086 2 6 2H26C28.2091 2 30 3.79086 30 6V26C30 28.2091 28.2091 30 26 30H6C3.79086 30 2 28.2091 2 26V6Z" fill="#8D65C5"/>
<path d="M25 15H21.04C21.26 12.31 22.36 9.79002 24.26 7.67002C24.63 7.26002 24.59 6.63002 24.18 6.26002C23.77 5.89002 23.14 5.93002 22.77 6.34002C21.57 7.67002 20.64 9.17002 20 10.78C19.46 12.14 19.13 13.56 19.03 15H12.96C12.86 13.55 12.53 12.14 11.99 10.78C11.36 9.17002 10.43 7.67002 9.24 6.33002C8.87 5.92002 8.24 5.88002 7.83 6.25002C7.42 6.62002 7.38 7.25002 7.75 7.66002C9.65 9.79002 10.75 12.31 10.97 14.99H7C6.45 14.99 6 15.44 6 15.99C6 16.54 6.45 16.99 7 16.99H10.96C10.74 19.68 9.64 22.2 7.74 24.32C7.37 24.73 7.41 25.36 7.82 25.73C8.01 25.92 8.25 26 8.49 26C8.77 26 9.04 25.89 9.24 25.67C10.43 24.33 11.36 22.84 12 21.23C12.54 19.87 12.87 18.45 12.97 17.01H19.04C19.14 18.46 19.47 19.87 20.01 21.23C20.65 22.84 21.58 24.34 22.77 25.67C22.97 25.89 23.24 26 23.52 26C23.76 26 23.99 25.92 24.18 25.75C24.59 25.38 24.63 24.75 24.26 24.34C22.36 22.21 21.26 19.69 21.04 17.01H25C25.55 17.01 26 16.56 26 16.01C26 15.46 25.55 15 25 15Z" fill="white"/>
</svg>

<svg xmlns="http://www.w3.org/2000/svg" width="32" height="32" fill="none"><path fill="#8D65C5" d="M2 6a4 4 0 0 1 4-4h20a4 4 0 0 1 4 4v20a4 4 0 0 1-4 4H6a4 4 0 0 1-4-4V6Z"/><path fill="#fff" d="M25 15h-3.96c.22-2.69 1.32-5.21 3.22-7.33a.998.998 0 1 0-1.49-1.33c-1.2 1.33-2.13 2.83-2.77 4.44-.54 1.36-.87 2.78-.97 4.22h-6.07c-.1-1.45-.43-2.86-.97-4.22-.63-1.61-1.56-3.11-2.75-4.45a.998.998 0 1 0-1.49 1.33c1.9 2.13 3 4.65 3.22 7.33H7c-.55 0-1 .45-1 1s.45 1 1 1h3.96c-.22 2.69-1.32 5.21-3.22 7.33a.998.998 0 0 0 .08 1.41c.19.19.43.27.67.27.28 0 .55-.11.75-.33 1.19-1.34 2.12-2.83 2.76-4.44.54-1.36.87-2.78.97-4.22h6.07c.1 1.45.43 2.86.97 4.22a14.93 14.93 0 0 0 2.76 4.44c.2.22.47.33.75.33.24 0 .47-.08.66-.25.41-.37.45-1 .08-1.41-1.9-2.13-3-4.65-3.22-7.33H25c.55 0 1-.45 1-1S25.55 15 25 15Z"/></svg>
